resources/logout.svg

<svg xmlns="http://www.w3.org/2000/svg" width="24" height="24" fill="#f4f4f7" viewBox="0 0 24 24"><path stroke="#374151" stroke-linecap="round" stroke-linejoin="round" stroke-width="2" d="M17 16L21 12M21 12L17 8M21 12L7 12M13 16V17C13 18.6569 11.6569 20 10 20H6C4.34315 20 3 18.6569 3 17V7C3 5.34315 4.34315 4 6 4H10C11.6569 4 13 5.34315 13 7V8"/></svg>

<svg width="24" height="24" fill="#f4f4f7">
  <path stroke="#374151" stroke-linecap="round" stroke-linejoin="round" stroke-width="2" d="m17 16 4-4m0 0-4-4m4 4H7m6 4v1a3 3 0 0 1-3 3H6a3 3 0 0 1-3-3V7a3 3 0 0 1 3-3h4a3 3 0 0 1 3 3v1"/>
</svg>
